!!!!SEGMENT: pl-cz--iii-109--004_dankowski-adalbert--missa-c-et-resurrexit.krn
!!!cenid: 18xx:783
!!!COM: Dankowski, Adalbert
!!!COM-rismID: pe30000793
!!!CDT: ~1760-~1836
!!!CNT: Polish
!!!OPR: Missa C
!!!OTL: Et resurrexit
!!!OMV: 004
!!!PDT:
!!!AGN: Sacred; Vespers
!!!SMS-siglum: PL-CZ
!!!SMS-shelfmark: III-109
!!!SMS-shelfwork: 001-004 M
!!!SMS-variant:
!!!SMS-altvar:
!!!NIFC-rismSourceID: 300000107
!!!NIFC-rismChildID: 300000107
!!!NIFC-islandoraID: pl-cz:34355
!!!URL-pdf-islandora: https://repozytorium.nifc.pl/islandora/object/pl-cz%3A34355/datastream/PDF/view
!!!URL-scan: https://polish.musicsources.pl/pl/lokalizacje/galeria/rekopisy/6827/1 @EN{Scan on Polish Music Sources Website} @PL{Skany w portalu Dziedzictwo Muzyki Polskiej w otwartym dostępie}
!!!IIIF:
!!!ONB-nifc: UWAGA: części Mszy: Kyrie, Gloria, Patrem, Et resurrexit, Sanctus, Benedictus, Agnus Dei, Dona nobis
!!!AIN: 1 alto 1 bass 2 cor 2 oboe 1 organ 1 soprn 1 tenor 2 violn
!!!key: C
**kern	**dynam	**fba	**kern	**dynam	**kern	**dynam	**kern	**text	**kern	**text	**kern	**text	**kern	**text	**kern	**kern	**kern	**dynam	**kern	**dynam
*group5	*	*	*group4	*	*group4	*	*group3	*	*group3	*	*group3	*	*group3	*	*group2	*group2	*group1	*	*group1	*
*part11	*part11	*	*part10	*part10	*part9	*part9	*part8	*part8	*part7	*part7	*part6	*part6	*part5	*part5	*part4	*part3	*part2	*part2	*part1	*part1
*staff11	*	*	*staff10	*	*staff9	*	*staff8	*staff8	*staff7	*staff7	*staff6	*staff6	*staff5	*staff5	*staff4	*staff3	*staff2	*	*staff1	*
*I"Organo	*	*	*I"Violino Secondo	*	*I"Violino Primo	*	*I"Baſso	*	*I"Tenore	*	*I"Alto	*	*I"Canto	*	*I"Cornu Secondo Ex C:	*I"Cornu Primo Ex C:	*I"Oboe Secondo	*	*I"Oboe Primo	*
*I'[Org]	*	*	*I'[Vl 2]	*	*I'[Vl 1]	*	*I'[B]	*	*I'[T]	*	*I'[A]	*	*I'[C]	*	*I'[Cor 2 in C]	*I'[Cor 1 in C]	*I'[Ob 2]	*	*I'[Ob 1]	*
*Iorgan	*	*	*Ivioln	*	*Ivioln	*	*Ibass	*	*Itenor	*	*Ialto	*	*Isoprn	*	*Icor	*Icor	*Ioboe	*	*Ioboe	*
*ICklav	*	*	*ICstr	*	*ICstr	*	*ICvox	*	*ICvox	*	*ICvox	*	*ICvox	*	*ICbras	*ICbras	*ICww	*	*ICww	*
*IGcont	*	*	*IGacmp	*	*IGacmp	*	*IGcoro	*	*IGcoro	*	*IGcoro	*	*IGcoro	*	*IGacmp	*IGacmp	*IGacmp	*	*IGacmp	*
*clefF4	*	*	*clefG2	*	*clefG2	*	*clefF4	*	*clefC4	*	*clefC3	*	*clefC1	*	*clefG2	*clefG2	*clefG2	*	*clefG2	*
*k[]	*	*	*k[]	*	*k[]	*	*k[]	*	*k[]	*	*k[]	*	*k[]	*	*k[]	*k[]	*k[]	*	*k[]	*
*C:	*	*	*C:	*	*C:	*	*C:	*	*C:	*	*C:	*	*C:	*	*C:	*C:	*C:	*	*C:	*
*M4/4	*	*	*M4/4	*	*M4/4	*	*M4/4	*	*M4/4	*	*M4/4	*	*M4/4	*	*M4/4	*M4/4	*M4/4	*	*M4/4	*
*met(c)	*	*	*met(c)	*	*met(c)	*	*met(c)	*	*met(c)	*	*met(c)	*	*met(c)	*	*met(c)	*met(c)	*met(c)	*	*met(c)	*
=1	=1	=1	=1	=1	=1	=1	=1	=1	=1	=1	=1	=1	=1	=1	=1	=1	=1	=1	=1	=1
!	!	!	!LO:TX:b:t=Et resurrexit	!	!LO:TX:b:t=Et resurrexit	!	!	!	!	!	!	!	!	!	!	!	!	!	!	!
!LO:TX:a:t=allo moder&colon;	!	!	!LO:TX:a:t=allo moderatto	!	!LO:TX:a:t=allo moderatto	!	!	!	!	!	!LO:TX:a:t=allo moder&colon;	!	!LO:TX:a:t=allo moder&colon;	!	!LO:TX:a:t=allo moderatto	!LO:TX:a:t=allo moderatto	!LO:TX:a:t=allo moderatto	!	!LO:TX:a:t=allo moder&colon;	!
8C\L	.	.	8e/L	.	8.cc\L	.	4C/	Et	4G/	Et	4e\	Et	4cc\	Et	4cc\	4cc\	4cc\	.	4ee\	.
8C\	.	.	8g/	.	.	.	.	.	.	.	.	.	.	.	.	.	.	.	.	.
.	.	.	.	.	16ee\Jk	.	.	.	.	.	.	.	.	.	.	.	.	.	.	.
8E\	.	6	8g/	.	16dd\LL	.	8E\	re-	8G/	re-	8e\	re-	8cc\	re-	4cc\	4ee\	4cc\	.	4ee\	.
.	.	.	.	.	16cc\	.	.	.	.	.	.	.	.	.	.	.	.	.	.	.
8E\J	.	.	8g/J	.	16b\	.	8E\	-ſur-	8G/	-ſur-	8e\	-ſur-	8cc\	-ſur-	.	.	.	.	.	.
.	.	.	.	.	16cc\JJ	.	.	.	.	.	.	.	.	.	.	.	.	.	.	.
8F\L	.	6	8a/L	.	(>16cc#X\LL	.	8F\	-re-	8A/	-re-	8f\	-re-	8dd\	-re-	4dd\	4ff\	4dd\	.	4ff\	.
.	.	.	.	.	16dd\)	.	.	.	.	.	.	.	.	.	.	.	.	.	.	.
8F\	.	.	8a/	.	(>16ff\	.	8F\	-xit	8A/	-xit	8f\	-xit	8dd\	-xit	.	.	.	.	.	.
.	.	.	.	.	16dd\JJ)	.	.	.	.	.	.	.	.	.	.	.	.	.	.	.
8G\	.	.	8d/	.	16b/LL	.	8G\	ter-	8G/	ter-	8d\	ter-	8b\	ter-	4g/	4dd\	4b\	.	4dd\	.
.	.	.	.	.	(<16g/	.	.	.	.	.	.	.	.	.	.	.	.	.	.	.
8G\J	.	.	8d/J	.	(<16a/)	.	16G\	-ti-	16G/	-ti-	16d\	-ti-	16b\	-ti-	.	.	.	.	.	.
.	.	.	.	.	16b/JJ)	.	16G\	-a	16G/	-a	16d\	-a	16b\	-a	.	.	.	.	.	.
=2	=2	=2	=2	=2	=2	=2	=2	=2	=2	=2	=2	=2	=2	=2	=2	=2	=2	=2	=2	=2
8c\L	.	.	8e/L	.	(>16cc\LL	.	8c\	di-	8G/	di-	8e\	di-	8cc\	di-	4e/	4cc\	4cc\	.	4ee\	.
.	.	.	.	.	16b\	.	.	.	.	.	.	.	.	.	.	.	.	.	.	.
8c\	.	.	8g/	.	16cc\)	.	8c\	-e	8G/	-e	8e\	-e	8cc\	-e	.	.	.	.	.	.
.	.	.	.	.	16ee\JJ	.	.	.	.	.	.	.	.	.	.	.	.	.	.	.
8E\	.	6	8g/	.	16dd\LL	.	8E\	Se-	8G/	Se-	8e\	Se-	8cc\	Se-	4cc\	4ee\	4cc\	.	4ee\	.
.	.	.	.	.	16cc\	.	.	.	.	.	.	.	.	.	.	.	.	.	.	.
8E\J	.	.	8g/J	.	16b\	.	8E\	-cun-	8G/	-cun-	8e\	-cun-	8cc\	-cun-	.	.	.	.	.	.
.	.	.	.	.	16cc\JJ	.	.	.	.	.	.	.	.	.	.	.	.	.	.	.
8F\L	.	6	8a/L	.	16ee\LL	.	8F\	-dum	8A\	-dum	8f\	-dum	8dd\	-dum	4dd\	4ff\	4dd\	.	4ff\	.
.	.	.	.	.	16dd\	.	.	.	.	.	.	.	.	.	.	.	.	.	.	.
8F\	.	.	8a/	.	16cc\	.	8F\	Scri-	8A\	Scri-	8f\	Scri-	8dd\	Scrip-	.	.	.	.	.	.
.	.	.	.	.	16dd\JJ	.	.	.	.	.	.	.	.	.	.	.	.	.	.	.
8F#X\	.	.5:	8a/	.	16ff\LL	.	4F#X\	-ptu-	4A\	-ptu	4e\	-ptu-	4cc\	-tu-	4cc\	4ee\	4cc\	.	4ee\	.
.	.	.	.	.	16ee\	.	.	.	.	.	.	.	.	.	.	.	.	.	.	.
8F#\J	.	.	8a/J	.	16dd\	.	.	.	.	.	.	.	.	.	.	.	.	.	.	.
.	.	.	.	.	16cc\JJ	.	.	.	.	.	.	.	.	.	.	.	.	.	.	.
!	!	!	!	!	!	!	!	!	!	!	!LO:LB:g=original	!	!LO:LB:g=original	!	!	!	!	!	!	!
=3	=3	=3	=3	=3	=3	=3	=3	=3	=3	=3	=3	=3	=3	=3	=3	=3	=3	=3	=3	=3
!!mixed beam:problem
!	!	!	!LO:TX:t=P:problem=mixed beam	!	!	!	!	!	!	!	!	!	!	!	!	!	!	!	!	!
8G\L	.	.	8d/L	.	8b\L	.	8G\	-ras	8G/	ras	8d\	-ras	8b\	-ras	4g/	4dd\	8b\L	.	8dd\L	.
!	!	!	!	!	!	!	!LO:LB:g=original	!	!LO:LB:g=original	!	!	!	!	!	!	!	!	!	!	!
8G\	.	2	8b\	.	16gg\L	.	8G\L	&	4d\	&	8b\L	&	8gg\L	&	.	.	8b\	.	8gg\	.
.	.	.	.	.	16aa\JJ	.	.	.	.	.	.	.	.	.	.	.	.	.	.	.
!	!	!	!	!	!LO:LB:g=original	!	!	!	!	!	!	!	!	!	!	!	!	!	!	!
8A\	.	6 2	8cc\	.	16gg\LL	.	8A\J	.	.	.	8cc\J	.	8ff#X\J	.	8r	8r	8cc\	.	8ff#X\	.
.	.	.	.	.	16ff#X\	.	.	.	.	.	.	.	.	.	.	.	.	.	.	.
8B\J	.	n5r 2	8dd\J	.	16dd\	.	8B\	-aſ-	8G/	aſ-	8dd\	aſ-	8ffn\	aſ-	8g/	8dd\	8dd\J	.	8ffn\J	.
.	.	.	.	.	16ffn\JJ	.	.	.	.	.	.	.	.	.	.	.	.	.	.	.
8c\L	.	.	8cc/L	.	16ff\LL	.	8c\	-cen-	8G/	-cen-	8cc\	-cen-	8ee\	-cen-	4cc\	4ee\	4cc\	.	4ee\	.
.	.	.	.	.	16ee\	.	.	.	.	.	.	.	.	.	.	.	.	.	.	.
8c\	.	.	8g/	.	16aa\	.	16c\	-dit	16G/	-dit	16g\	-dit	16ee\	-dit	.	.	.	.	.	.
.	.	.	.	.	16gg\JJ	.	16c\	in	16G/	in	16g\	in	16ee\	in	.	.	.	.	.	.
8B\	.	6: x	8g/	.	16gg\LL	.	8B\	Cae-	8G/	Cae-	8g\	Cae-	8dd\	Cae-	4g/	4dd\	4dd\	.	4ff\	.
.	.	.	.	.	16ff\	.	.	.	.	.	.	.	.	.	.	.	.	.	.	.
8B\J	.	.	8g/J	.	16ee\	.	8B\	-lum	8G/	-lum	8g\	-lum	8dd\	-lum	.	.	.	.	.	.
.	.	.	.	.	16dd\JJ	.	.	.	.	.	.	.	.	.	.	.	.	.	.	.
=4	=4	=4	=4	=4	=4	=4	=4	=4	=4	=4	=4	=4	=4	=4	=4	=4	=4	=4	=4	=4
8A\L	.	.	8e/L	.	16dd\LL	.	4A\	Se-	4A/	Se-	4e\	Se-	4cc\	Se-	4cc\	4ee\	4cc\	.	4ee\	.
.	.	.	.	.	16cc\	.	.	.	.	.	.	.	.	.	.	.	.	.	.	.
8A\	.	.	8e/	.	16b\	.	.	.	.	.	.	.	.	.	.	.	.	.	.	.
.	.	.	.	.	16cc\JJ	.	.	.	.	.	.	.	.	.	.	.	.	.	.	.
8E\	.	6: -5r:	8g/	.	(>8.cc\L	.	8E\	-det	8G/	-det	8g\	-det	8cc\	-det	4cc\	4ee\	4cc\	.	4gg\	.
8E\J	.	.	8g/J	.	.	.	8E\	ad	8G/	ad	8g\	ad-	8cc\	ed	.	.	.	.	.	.
.	.	.	.	.	16b-X\Jk)	.	.	.	.	.	.	.	.	.	.	.	.	.	.	.
!LO:LB:g=original	!	!	!LO:LB:g=original	!	!	!	!	!	!	!	!	!	!	!	!	!	!	!	!	!
!!mixed beam:problem
!LO:TX:t=P:problem=mixed beam	!	!	!	!	!	!	!	!	!	!	!	!	!	!	!	!	!	!	!	!
8F\L	.	6: x	8a/L	.	16a\LL	.	8F\	dex-	8A/	dex-	8f\	-dex-	8dd\	dex-	4dd\	4ff\	4dd\	.	4ff\	.
.	.	.	.	.	16dd\	.	.	.	.	.	.	.	.	.	.	.	.	.	.	.
8F\	.	.	16a/L	.	16ff\	.	16F\	-te-	16A/	-te-	16f\	-te-	16dd\	-te-	.	.	.	.	.	.
.	.	.	16f/JJ	.	16dd\JJ	.	16F\	-ram	16A/	-ram	16f\	-ram	16dd\	-ram	.	.	.	.	.	.
8G\	.	4 x	16f/LL	.	16dd\LL	.	4G\	pa-	4G/	pa-	8e\L	pa-	8cc\L	pat-	8cc\L	8ee\L	8cc\L	.	8ee\L	.
.	.	.	16e/	.	16cc\	.	.	.	.	.	.	.	.	.	.	.	.	.	.	.
8GG/J	.	2 x	16e/	.	16cc\	.	.	.	.	.	8d\J	.	8b\J	.	8g\J	8dd\J	8b\J	.	8dd\J	.
.	.	.	16d/JJ	.	16bn\JJ	.	.	.	.	.	.	.	.	.	.	.	.	.	.	.
!	!	!	!	!	!	!	!	!	!	!	!	!	!LO:LB:g=original	!	!	!	!	!	!	!
=5	=5	=5	=5	=5	=5	=5	=5	=5	=5	=5	=5	=5	=5	=5	=5	=5	=5	=5	=5	=5
!!mixed beam:problem
!	!	!	!	!LO:DY:a:t=pia	!LO:TX:t=P:problem=mixed beam	!LO:DY:a:t=p&colon;	!	!	!LO:TX:a:t=Solo	!	!	!	!	!	!	!	!LO:TX:a:t=Solo&colon;:rj	!	!LO:TX:a:t=Solo&colon;:rj	!
4C/	.	.	8e/L	p	8cc\L	p	4C/	-tris	8G/	-tris	8e\	-tris	4cc\	-ris	4e/	4cc\	8cc\L	.	8ee\L	.
!	!	!	!	!	!	!	!	!	!	!	!LO:LB:g=original	!	!	!	!	!	!	!	!	!
!	!	!	!	!	!	!	!	!	!	!	!LO:TX:a:rj:t=Solo&colon;	!	!	!	!	!	!	!	!	!
.	.	.	16e/L	.	16g/L	.	.	.	16e\LL	&	16f\LL	&	.	.	.	.	(>16ee\L	.	16gg\L	.
.	.	.	16f/JJ	.	16a/JJ	.	.	.	16f\JJ	.	16g\JJ	.	.	.	.	.	16ff\JJ)	.	16aa\JJ	.
!	!	!	!	!	!	!	!	!	!	!	!	!	!	!	!	!	!LO:TX:a:t=|:problem	!	!	!
8r	.	.	8e/L	.	8g/L	.	4r	.	8e\	i-	8g\	i-	4r	.	4r	4r	8ee\L	.	8gg\L	.
!	!LO:DY:a:rj:t=pio&colon;	!	!	!	!	!	!	!	!	!	!	!	!	!	!	!	!LO:TX:a:t=|:problem	!	!	!
8GG/	p	.	8d/J	.	8f/J	.	.	.	8d\	-te-	8f\	-te-	.	.	.	.	8dd\J	.	8ff\J	.
!	!	!	!	!	!	!	!	!	!LO:LB:g=original	!	!	!	!	!	!	!	!LO:LB:g=original	!	!LO:LB:g=original	!
!	!	!	!	!	!	!	!	!	!	!	!	!	!	!	!	!	!LO:TX:a:t=|:problem	!	!	!
8C\L	.	.	8c/L	.	8e/L	.	2r	.	8c\	-rum	8e\	-rum	2r	.	2r	2r	8cc\L	.	8ee\L	.
8C\	.	.	16B/L	.	16d/L	.	.	.	16B\LL	Ven-	16d\LL	Ven-	.	.	.	.	(>16b\L	.	16dd\L	.
.	.	.	16c/JJ	.	16e/JJ	.	.	.	16c\JJ	.	16e\JJ	.	.	.	.	.	16cc\JJ)	.	16ee\JJ	.
!	!	!	!	!	!	!	!	!	!	!	!	!	!	!	!	!	!LO:TX:a:t=|:problem	!	!	!
8F\	.	6 x	8d/L	.	8f/L	.	.	.	8d\	-tu-	8f\	-tu-	.	.	.	.	8dd\L	.	8ff\L	.
!	!	!	!	!	!	!	!	!	!	!	!	!	!	!	!	!	!LO:TX:a:t=|:problem	!	!	!
8F#X\J	.	5 x	8c/J	.	8e/J	.	.	.	8c\	-rus	8e\	-rus	.	.	.	.	8cc\J	.	8ee\J	.
!	!	!	!	!	!LO:LB:g=original	!	!	!	!	!	!	!	!	!	!LO:LB:g=original	!LO:LB:g=original	!	!	!	!
=6	=6	=6	=6	=6	=6	=6	=6	=6	=6	=6	=6	=6	=6	=6	=6	=6	=6	=6	=6	=6
4G\	.	.	4B/	.	4d/	.	2r	.	8B\	eſt	8d\	eſt	2r	.	2r	2r	8b\L	.	8dd\L	.
.	.	.	.	.	.	.	.	.	8B\	Cum	8d\	Cum	.	.	.	.	(>8b\	.	8dd\	.
4r	.	.	4r	.	4r	.	.	.	8c\	glo-	8e\	glo-	.	.	.	.	8cc\	.	8ee\	.
.	.	.	.	.	.	.	.	.	8d\	-ri-	8f\	-ri-	.	.	.	.	8dd\J)	.	8ff\J	.
!	!	!	!	!	!	!	!LO:LB:g=original	!	!	!	!	!	!	!	!	!	!	!	!	!
*	*	*	*	*	*	*	*	*	*	*	*	*	*	*	*2\right	*2\right	*2\right	*	*2\right	*
!LO:TX:a:t=tutti:rj	!	!	!	!LO:DY:a:rj:t=for	!	!LO:DY:a:rj	!	!	!	!	!	!	!	!	!	!	!	!LO:DY:a:t=f&colon;	!	!LO:DY:a:t=for&colon;
8c\L	.	.	8e/L	f	16cc\LL	fz	8r	.	4c\	-a	8e\	-a	8r	.	2cc\	2ee\	2cc\	f	2ee\	f
.	.	.	.	.	16g\	.	.	.	.	.	.	.	.	.	.	.	.	.	.	.
8c\	.	.	8e/	.	16cc\	.	4c\	Ju-	.	.	4g\	Ju-	4ee\	Ju-	.	.	.	.	.	.
.	.	.	.	.	16dd\JJ	.	.	.	.	.	.	.	.	.	.	.	.	.	.	.
8c\	.	.	8g/	.	16ee\LL	.	.	.	8c\	Ju-	.	.	.	.	.	.	.	.	.	.
.	.	.	.	.	16cc\	.	.	.	.	.	.	.	.	.	.	.	.	.	.	.
8c\J	.	.	8g/J	.	16gg\	.	8c\	-di-	8c\	-di-	8g\	-di-	8ee\	-di-	.	.	.	.	.	.
.	.	.	.	.	16ee\JJ	.	.	.	.	.	.	.	.	.	.	.	.	.	.	.
=7	=7	=7	=7	=7	=7	=7	=7	=7	=7	=7	=7	=7	=7	=7	=7	=7	=7	=7	=7	=7
*tremolo	*	*	*	*	*	*	*	*	*	*	*	*	*	*	*	*	*	*	*	*
*2\right	*	*	*	*	*	*	*	*	*	*	*	*	*	*	*	*	*	*	*	*
8c\L	.	.	8e/L	.	16cc\LL	.	4c\	-ca-	4c\	-ca-	4g\	-ca-	4ee\	-ca-	2cc\	2ee\	2cc\	.	2ee\	.
.	.	.	.	.	16g\	.	.	.	.	.	.	.	.	.	.	.	.	.	.	.
8c\	.	.	8e/	.	16cc\	.	.	.	.	.	.	.	.	.	.	.	.	.	.	.
.	.	.	.	.	16dd\JJ	.	.	.	.	.	.	.	.	.	.	.	.	.	.	.
8c\	.	.	8g/	.	16ee\LL	.	4c\	-re	4c\	-re	4g\	-re	4ee\	-re	.	.	.	.	.	.
.	.	.	.	.	16cc\	.	.	.	.	.	.	.	.	.	.	.	.	.	.	.
8c\J	.	.	8g/J	.	16gg\	.	.	.	.	.	.	.	.	.	.	.	.	.	.	.
.	.	.	.	.	16ee\JJ	.	.	.	.	.	.	.	.	.	.	.	.	.	.	.
!	!	!	!	!	!	!	!	!	!	!	!LO:LB:g=original	!	!	!	!	!	!	!	!	!
*	*	*	*	*	*	*	*2\right	*	*2\right	*	*2\right	*	*2\right	*	*	*	*	*	*	*
8A\L	.	6 2	8cc\L	.	16dd\LL	.	2A\	Vi-	2d\	Vi-	2cc\	Vi-	2ff#X\	vi-	2dd\	2dd\	2cc\	.	2ff#X\	.
.	.	.	.	.	16ff#X\	.	.	.	.	.	.	.	.	.	.	.	.	.	.	.
8A\	.	.	8cc\	.	16ff#\	.	.	.	.	.	.	.	.	.	.	.	.	.	.	.
.	.	.	.	.	16ff#\JJ	.	.	.	.	.	.	.	.	.	.	.	.	.	.	.
8A\	.	.	8cc\	.	16ff#\LL	.	.	.	.	.	.	.	.	.	.	.	.	.	.	.
.	.	.	.	.	16gg\	.	.	.	.	.	.	.	.	.	.	.	.	.	.	.
8A\J	.	.	8cc\J	.	16aa\	.	.	.	.	.	.	.	.	.	.	.	.	.	.	.
.	.	.	.	.	16ff#\JJ	.	.	.	.	.	.	.	.	.	.	.	.	.	.	.
*Xtremolo	*	*	*	*	*	*	*	*	*	*	*	*	*	*	*	*	*	*	*	*
!	!	!	!LO:LB:g=original	!	!	!	!	!	!	!	!	!	!	!	!	!	!	!	!	!
=8	=8	=8	=8	=8	=8	=8	=8	=8	=8	=8	=8	=8	=8	=8	=8	=8	=8	=8	=8	=8
!	!LO:DY:a:t=p&colon;	!	!	!	!	!	!	!	!	!	!	!	!	!	!	!	!	!	!	!
8G\L	p	.	8b\L	.	8gg\L	.	4G\	-vos	4d\	-vos	4b\	-vos	4gg\	-vos	4g/	4dd\	4b\	.	4gg\	.
!	!	!	!	!LO:DY:a:rj:t=p&colon;	!	!LO:DY:a:t=p&colon;	!	!	!	!	!	!	!	!	!	!	!	!	!	!
8G\	.	.	8b\	p	8dd\	p	.	.	.	.	.	.	.	.	.	.	.	.	.	.
8G\	.	.	8b\	.	8dd\	.	4G\	&	4d\	&	4b\	&	4dd\	&	4r	4r	4r	.	4r	.
8G\J	.	.	8b\J	.	8dd\J	.	.	.	.	.	.	.	.	.	.	.	.	.	.	.
8r	.	.	8r	.	8r	.	4.D\	mor-	4f#X\	mor-	4.a\	mor-	4.cc\	mor-	2r	2r	2r	.	2r	.
8D\L	.	x #:	8a/L	.	8cc\L	.	.	.	.	.	.	.	.	.	.	.	.	.	.	.
8D\	.	.	8a/	.	8cc\	.	.	.	4f#\	-tu-	.	.	.	.	.	.	.	.	.	.
8D\J	.	.	8a/J	.	8cc\J	.	8D\	-tu-	.	.	8a\	-tu-	8cc\	-tu-	.	.	.	.	.	.
!LO:LB:g=original	!	!	!	!	!LO:LB:g=original	!	!	!	!LO:LB:g=original	!	!	!	!	!	!	!	!	!	!	!
=9	=9	=9	=9	=9	=9	=9	=9	=9	=9	=9	=9	=9	=9	=9	=9	=9	=9	=9	=9	=9
!	!LO:DY:a:rj:t=fz	!	!	!LO:DY:a:rj:t=f&colon;	!	!LO:DY:a	!	!	!	!	!	!	!	!	!	!	!	!	!	!
8G\L	f	.	8g/L	f	8.b\L	fz	4G\	-os	4g\	-os	4g\	-os	4b\	-os	2g/	1dd	2b\	.	2gg\	.
8G\	.	.	8b/	.	.	.	.	.	.	.	.	.	.	.	.	.	.	.	.	.
.	.	.	.	.	16dd\Jk	.	.	.	.	.	.	.	.	.	.	.	.	.	.	.
8G\	.	.	8b/	.	16dd\LL	.	8G\	Cu-	8B\	Cu-	8b\	Cu-	8dd\	Cu-	.	.	.	.	.	.
.	.	.	.	.	16b\	.	.	.	.	.	.	.	.	.	.	.	.	.	.	.
8G\J	.	.	8b/J	.	16ee\	.	8G\	-jus	8B\	-jus	8b\	-jus	8dd\	-jus	.	.	.	.	.	.
.	.	.	.	.	16dd\JJ	.	.	.	.	.	.	.	.	.	.	.	.	.	.	.
*tremolo	*	*	*	*	*	*	*	*	*	*	*	*	*	*	*	*	*	*	*	*
!	!	!	!	!	!	!	!	!	!	!	!	!	!LO:LB:g=original	!	!	!	!	!	!	!
8F#X\L	.	6 5	8a/L	.	16dd\LL	.	4F#X\	re-	4c\	re-	4a\	re-	4dd\	re-	2dd\	.	2cc\	.	2aa\	.
.	.	.	.	.	16cc\	.	.	.	.	.	.	.	.	.	.	.	.	.	.	.
8F#X\	.	.	8a/	.	16b\	.	.	.	.	.	.	.	.	.	.	.	.	.	.	.
.	.	.	.	.	16cc\JJ	.	.	.	.	.	.	.	.	.	.	.	.	.	.	.
8F#X\	.	.	8a/	.	16aa\LL	.	8F#\	-gni	8c\	-gni	8a\	-gni	8dd\	-gni	.	.	.	.	.	.
.	.	.	.	.	16ff#X\	.	.	.	.	.	.	.	.	.	.	.	.	.	.	.
8F#X\J	.	.	8a/J	.	16dd\	.	8F#\	non	8c\	non	8a\	non	8dd\	non	.	.	.	.	.	.
.	.	.	.	.	16cc\JJ	.	.	.	.	.	.	.	.	.	.	.	.	.	.	.
*Xtremolo	*	*	*	*	*	*	*	*	*	*	*	*	*	*	*	*	*	*	*	*
=10	=10	=10	=10	=10	=10	=10	=10	=10	=10	=10	=10	=10	=10	=10	=10	=10	=10	=10	=10	=10
8G\L	.	.	8d/L	.	16cc\LL	.	4G\	e-	4B\	e-	4b\	e-	4dd\	e-	2g/	4dd\	4b\	.	2gg\	.
.	.	.	.	.	16b\	.	.	.	.	.	.	.	.	.	.	.	.	.	.	.
8G\	.	.	8d/	.	16b\	.	.	.	.	.	.	.	.	.	.	.	.	.	.	.
.	.	.	.	.	16dd\JJ	.	.	.	.	.	.	.	.	.	.	.	.	.	.	.
8B\	.	6 x	8g/	.	16gg\LL	.	8B\	-rit	8d\	-rit	8g\	-rit	8dd\	-rit	.	4dd\	4dd\	.	.	.
.	.	.	.	.	16ff#X\	.	.	.	.	.	.	.	.	.	.	.	.	.	.	.
!	!	!	!	!	!	!	!LO:LB:g=original	!	!	!	!	!	!	!	!	!	!	!	!	!
*	*	*	*	*	*	*	*	*	*	*ij	*	*ij	*	*ij	*	*	*	*	*	*
8B\J	.	.	8g/J	.	16ee\	.	8B\	non	8d\	non	8g\	non	8dd\	non	.	.	.	.	.	.
.	.	.	.	.	16dd\JJ	.	.	.	.	.	.	.	.	.	.	.	.	.	.	.
!!mixed beam:problem
!LO:TX:t=P:problem=mixed beam	!	!	!	!	!	!	!	!	!	!	!	!	!	!	!	!	!	!	!	!
8c\L	.	6 x	8a/L	.	8ee\L	.	8c\	e-	8e\	e-	8a\	e-	8cc\	e-	4cc\	4ee\	4cc\	.	4aa\	.
!	!	!	!LO:TUP:b:problem=klamra łukowa	!	!	!	!	!	!	!	!	!	!	!	!	!	!	!	!	!
8c\	.	.	24cc/L	.	24ee\L	.	8c\	-rit	8e\	-rit	8a\	-rit	8cc\	-rit	.	.	.	.	.	.
*	*	*	*	*	*	*	*	*	*	*Xij	*	*Xij	*	*Xij	*	*	*	*	*	*
.	.	.	24b/	.	24dd\	.	.	.	.	.	.	.	.	.	.	.	.	.	.	.
.	.	.	24a/JJ	.	24cc\JJ	.	.	.	.	.	.	.	.	.	.	.	.	.	.	.
8d\	.	4 x	8g/L	.	8b\L	.	8d\L	fi-	4d\	fi-	8g\L	fi-	8b\L	fi-	8dd\L	8dd\L	8b\L	.	8gg\L	.
8D/J	.	# x	8f#X/J	.	8a\J	.	8D\J	.	.	.	8f#X\J	.	8a\J	.	8dd\J	8dd\J	8a\J	.	8ff#X\J	.
!	!	!	!	!	!LO:PB:g=original	!	!	!	!	!	!LO:LB:g=original	!	!	!	!	!	!LO:LB:g=original	!	!LO:LB:g=original	!
=11	=11	=11	=11	=11	=11	=11	=11	=11	=11	=11	=11	=11	=11	=11	=11	=11	=11	=11	=11	=11
8G\L	.	.	(<16B/LL	.	(>8.b\L	.	8G\	-nis	8d\	-nis	8g\	-nis	8b\	-nis	2g/	2dd\	2b\	.	4gg\	.
.	.	.	16d/)	.	.	.	.	.	.	.	.	.	.	.	.	.	.	.	.	.
8G\	.	.	(<16B/	.	.	.	16G\	&	4G/	qui	4d\	qui	16b\	&	.	.	.	.	.	.
.	.	.	16d/JJ)	.	16cc\Jk)	.	16G\	in	.	.	.	.	16b\	in	.	.	.	.	.	.
!	!	!	!LO:LB:g=original	!	!	!	!	!	!	!	!	!	!	!	!	!	!	!	!	!
!	!	!	!	!	!LO:TX:a:t=|:problem	!	!	!	!	!	!	!	!	!	!	!	!	!	!	!
8G\	.	.	16B/LL	.	8dd\L	.	8G\	Spi-	.	.	.	.	8b\	Spi-	.	.	.	.	4dd\	.
.	.	.	16d/	.	.	.	.	.	.	.	.	.	.	.	.	.	.	.	.	.
!	!	!	!	!	!LO:TX:a:t=|:problem	!	!	!	!	!	!	!	!	!	!	!	!	!	!	!
8G\J	.	.	16B/	.	8dd\J	.	16G\	-ri-	8G/	Cum	8d\	Cum	16b\	-ri-	.	.	.	.	.	.
.	.	.	16d/JJ	.	.	.	16G\	-tum	.	.	.	.	16b\	-tum	.	.	.	.	.	.
*tremolo	*	*	*	*	*	*	*	*	*	*	*	*	*	*	*	*	*	*	*	*
!	!	!	!	!	!	!	!	!	!	!	!	!	!LO:LB:g=original	!	!	!	!	!	!	!
8G\L	.	6 4	16c/LL	.	(>8.ee\L	.	8G\	San-	8G/	pa-	8e\	pa-	8cc\	San-	2cc\	2ee\	2cc\	.	2ee\	.
.	.	.	16e/	.	.	.	.	.	.	.	.	.	.	.	.	.	.	.	.	.
8G\	.	.	16c/	.	.	.	8G\	-ctum	16G/	-tre	16e\	-tre	8cc\	-ctum	.	.	.	.	.	.
.	.	.	16e/JJ	.	16ff\Jk)	.	.	.	16G/	&	16e\	&	.	.	.	.	.	.	.	.
.	.	.	.	.	8qaa/	.	.	.	.	.	.	.	.	.	.	.	.	.	.	.
!	!	!	!	!	!	!	!	!	!LO:LB:g=original	!	!	!	!	!	!	!	!	!	!	!
8G\	.	.	16c/LL	.	8gg\L	.	8G\	Do-	8G/	fi-	8e\	fi-	8.cc\	Do-	.	.	.	.	.	.
.	.	.	16e/	.	.	.	.	.	.	.	.	.	.	.	.	.	.	.	.	.
8G\J	.	.	16c/	.	(>16ff\L	.	8G\	-mi-	8G/	-li-	8e\	-li-	.	.	.	.	.	.	.	.
.	.	.	16e/JJ	.	16ee\JJ)	.	.	.	.	.	.	.	16cc\	-mi-	.	.	.	.	.	.
!	!	!	!	!	!LO:LB:g=original	!	!	!	!	!	!	!	!	!	!	!	!	!	!	!
=12	=12	=12	=12	=12	=12	=12	=12	=12	=12	=12	=12	=12	=12	=12	=12	=12	=12	=12	=12	=12
8G\L	.	x 2	16B/LL	.	(>8.dd\L	.	4G\	-num	8G/	-o	8d\	-o	4b\	-num	2g/	2dd\	2b\	.	2dd\	.
.	.	.	16d/	.	.	.	.	.	.	.	.	.	.	.	.	.	.	.	.	.
8G\	.	.	16B/	.	.	.	.	.	16G/	ſi-	16d\	ſi-	.	.	.	.	.	.	.	.
.	.	.	16d/JJ	.	32b\LL	.	.	.	16G/	-mul	16d\	-mul	.	.	.	.	.	.	.	.
.	.	.	.	.	32cc\JJJ)	.	.	.	.	.	.	.	.	.	.	.	.	.	.	.
!	!	!	!	!	!LO:TX:a:t=|:problem	!	!	!	!	!	!	!	!	!	!	!	!	!	!	!
8G\	.	.	16B/LL	.	8dd\L	.	8G\	&	8G/	a-	8d\	a-	8b\	&	.	.	.	.	.	.
.	.	.	16d/	.	.	.	.	.	.	.	.	.	.	.	.	.	.	.	.	.
!	!	!	!	!	!LO:TX:a:t=|:problem	!	!	!	!	!	!	!	!	!	!	!	!	!	!	!
8G\J	.	.	16B/	.	8dd\J	.	8G\	vi-	8G/	-do-	8d\	-do-	8b\	vi-	.	.	.	.	.	.
.	.	.	16d/JJ	.	.	.	.	.	.	.	.	.	.	.	.	.	.	.	.	.
!	!	!	!	!	!	!	!LO:LB:g=original	!	!	!	!	!	!	!	!	!	!	!	!	!
8G\L	.	6 4	16c/LL	.	(>8.ee\L	.	8G\	-vi-	4G/	-ra-	4e\	-ra-	8cc\	-vi-	2cc\	2ee\	2cc\	.	2ee\	.
.	.	.	16e/	.	.	.	.	.	.	.	.	.	.	.	.	.	.	.	.	.
8G\	.	.	16c/	.	.	.	8G\	-fi-	.	.	.	.	8cc\	-fi-	.	.	.	.	.	.
.	.	.	16e/JJ	.	16ff#X\Jk)	.	.	.	.	.	.	.	.	.	.	.	.	.	.	.
.	.	.	.	.	8qaa/	.	.	.	.	.	.	.	.	.	.	.	.	.	.	.
8G\	.	.	16c/LL	.	8gg\L	.	4G\	-can-	8G/	-tur	8e\	-tur	4cc\	-can-	.	.	.	.	.	.
.	.	.	16e/	.	.	.	.	.	.	.	.	.	.	.	.	.	.	.	.	.
8G\J	.	.	16c/	.	16ff#\L	.	.	.	8G/	&	8e\	&	.	.	.	.	.	.	.	.
!	!	!	!	!	!	!	!	!	!	!	!	!	!LO:TX:b:t=Verte	!	!	!	!	!	!	!
.	.	.	16e/JJ	.	16ee\JJ	.	.	.	.	.	.	.	.	.	.	.	.	.	.	.
!	!	!	!	!	!	!	!	!	!	!	!	!	!LO:PB:g=original	!	!	!LO:LB:g=original	!	!	!	!
=13	=13	=13	=13	=13	=13	=13	=13	=13	=13	=13	=13	=13	=13	=13	=13	=13	=13	=13	=13	=13
!!mixed beam:problem
!	!	!	!LO:TX:t=P:problem=mixed beam	!	!	!	!	!	!	!	!	!	!	!	!	!	!	!	!	!
8G\L	.	2 x	8B/L	.	16ee\LL	.	4G\	-tem	8G/	con-	8d\	con	4b\	-tem	2g/	2dd\	4b\	.	4dd\	.
.	.	.	.	.	16dd\J	.	.	.	.	.	.	.	.	.	.	.	.	.	.	.
!	!	!	!	!	!	!	!	!	!	!	!LO:LB:g=original	!	!	!	!	!	!	!	!	!
8G\	.	.	8B/	.	8dd\J	.	.	.	8B\	-glo-	8b\	glo-	.	.	.	.	.	.	.	.
8G\	.	.	8b\	.	16gg\LL	.	8G\	qui	8B\	-ri-	8b\	-ri-	8dd\	qui	.	.	4b\	.	4gg\	.
.	.	.	.	.	16ff#X\	.	.	.	.	.	.	.	.	.	.	.	.	.	.	.
8G\J	.	.	8b\J	.	16ee\	.	8G\	ex	8B\	-fi-	8b\	-fi-	8dd\	ex	.	.	.	.	.	.
.	.	.	.	.	16dd\JJ	.	.	.	.	.	.	.	.	.	.	.	.	.	.	.
!	!	!	!	!	!	!	!	!	!	!	!	!	!	!	!LO:LB:g=original	!	!	!	!	!
*Xtremolo	*	*	*	*	*	*	*	*	*	*	*	*	*	*	*	*	*	*	*	*
8F#X\L	.	6: 5:	8a\L	.	16dd\LL	.	8F#X\	pa-	8c\	-ca-	8a\	-ca-	8dd\	pa-	4dd\	2dd\	4cc\	.	4aa\	.
.	.	.	.	.	16cc\	.	.	.	.	.	.	.	.	.	.	.	.	.	.	.
8F#\	.	.	8a\	.	16b\	.	8F#\	-tre	8c\	-tur	8a\	-tur	8dd\	-tre	.	.	.	.	.	.
.	.	.	.	.	16cc\JJ	.	.	.	.	.	.	.	.	.	.	.	.	.	.	.
8G\	.	.	8b\	.	16b\LL	.	8G\	fi-	8B\	qui	8b\	qui	8dd\	fi-	4g/	.	8b\L	.	8gg\L	.
.	.	.	.	.	16dd\	.	.	.	.	.	.	.	.	.	.	.	.	.	.	.
8B\J	.	6 x	8dd\J	.	16gg\	.	8B\	-li-	8B\	lo-	8g\	lo-	8dd\	-li-	.	.	8dd\J	.	8ffn\J	.
.	.	.	.	.	16ffn\JJ	.	.	.	.	.	.	.	.	.	.	.	.	.	.	.
!LO:LB:g=original	!	!	!LO:LB:g=original	!	!	!	!	!	!LO:LB:g=original	!	!	!	!	!	!	!	!	!	!	!
=14	=14	=14	=14	=14	=14	=14	=14	=14	=14	=14	=14	=14	=14	=14	=14	=14	=14	=14	=14	=14
8c\L	.	x 2	8cc\L	.	8ee\L	.	4c\	-o-	4c\	-cu-	4g\	-cu-	4ee\	-o-	4cc\	4ee\	4cc\	.	4ee\	.
8c\	.	.	8cc\	.	16ee\L	.	.	.	.	.	.	.	.	.	.	.	.	.	.	.
.	.	.	.	.	16gg\JJ	.	.	.	.	.	.	.	.	.	.	.	.	.	.	.
8c\	.	#4r: 2:	8a\	.	16ff#X\LL	.	8c\	-que	8d\	-tus	8a\	-tus	8ff#X\	-que	4dd\	4dd\	4dd\	.	4ff#X\	.
.	.	.	.	.	16dd\	.	.	.	.	.	.	.	.	.	.	.	.	.	.	.
8c\J	.	.	8a\J	.	16ee\	.	8c\	pro-	8d\	eſt	8a\	eſt	8ff#\	pro-	.	.	.	.	.	.
.	.	.	.	.	16ff#\JJ	.	.	.	.	.	.	.	.	.	.	.	.	.	.	.
!!mixed beam:problem
!LO:TX:t=P:problem=mixed beam	!	!	!	!	!	!	!LO:TX:t=P:problem=mixed beam	!	!	!	!	!	!	!	!	!	!	!	!	!
8B\L	.	6 x	8b\L	.	16gg\LL	.	8B\L	-ce-	8d\	per	8b\	per	8gg\L	-ce-	8g\L	8dd\L	8dd\L	.	8gg\L	.
.	.	.	.	.	16dd\	.	.	.	.	.	.	.	.	.	.	.	.	.	.	.
8c\	.	6 x	16cc\L	.	16ee\	.	8c\	.	8e\	pro-	8a\	pro-	16ee\L	.	8cc\	8ee\	8cc\	.	8aa\	.
.	.	.	16a\JJ	.	16cc\JJ	.	.	.	.	.	.	.	16cc\JJ	.	.	.	.	.	.	.
!	!	!	!	!	!LO:LB:g=original	!	!	!	!	!	!	!	!	!	!	!	!	!	!	!
8d\	.	4 x	8g/L	.	8b/L	.	8d\	.	4d\	-phe-	8g\L	-phe-	8b\L	.	8dd\	8dd\	8b\	.	8gg\	.
8D\J	.	x #	8f#X/J	.	8a/J	.	8D/J	.	.	.	8f#X\J	.	8a\J	.	8dd\J	8dd\J	8a\J	.	8ff#\J	.
!	!	!	!	!	!	!	!LO:LB:g=original	!	!	!	!	!	!	!	!	!	!	!	!	!
=15	=15	=15	=15	=15	=15	=15	=15	=15	=15	=15	=15	=15	=15	=15	=15	=15	=15	=15	=15	=15
!LO:TX:a:t=Solo	!	!	!	!	!LO:TX:a:t=Solo:rj	!	!	!	!	!	!	!	!	!	!	!	!	!	!	!
4G\	.	.	4g/	.	8b\L	.	4G\	-dit	4d\	-tas	4g\	-tas	4b\	-dit	4g/	4dd\	4b\	.	4gg\	.
.	.	.	.	.	(>32gg\LL	.	.	.	.	.	.	.	.	.	.	.	.	.	.	.
.	.	.	.	.	32ff#X\	.	.	.	.	.	.	.	.	.	.	.	.	.	.	.
.	.	.	.	.	32ee\	.	.	.	.	.	.	.	.	.	.	.	.	.	.	.
.	.	.	.	.	32dd\JJJ)	.	.	.	.	.	.	.	.	.	.	.	.	.	.	.
!	!	!	!	!	!LO:TX:a:t=|:problem	!	!	!	!	!	!	!	!	!	!	!	!	!	!	!
8r	.	.	8r	.	8dd\L	.	4r	.	4r	.	4r	.	4r	.	4r	4r	4r	.	4r	.
!	!	!	!LO:TX:a:t=Solo&colon;:rj	!	!LO:TX:a:t=|:problem	!	!	!	!	!	!	!	!	!	!	!	!	!	!	!
8G\	.	.	8d/ 8b	.	8dd\J	.	.	.	.	.	.	.	.	.	.	.	.	.	.	.
4F#X\	.	6 5	4d/ 4a	.	8dd\L	.	2r	.	2r	.	2r	.	2r	.	2r	2r	2r	.	2r	.
.	.	.	.	.	32aa\LL	.	.	.	.	.	.	.	.	.	.	.	.	.	.	.
.	.	.	.	.	(>32ff#\	.	.	.	.	.	.	.	.	.	.	.	.	.	.	.
.	.	.	.	.	32ee\	.	.	.	.	.	.	.	.	.	.	.	.	.	.	.
.	.	.	.	.	32dd\JJJ)	.	.	.	.	.	.	.	.	.	.	.	.	.	.	.
!	!	!	!	!	!LO:TX:a:t=|:problem	!	!	!	!	!	!	!	!	!	!	!	!	!	!	!
8r	.	.	8r	.	8cc\L	.	.	.	.	.	.	.	.	.	.	.	.	.	.	.
!	!	!	!	!	!LO:TX:a:t=|:problem	!	!	!	!	!	!	!	!	!	!	!	!	!	!	!
8F#\	.	.	8d/ 8a	.	8cc\J	.	.	.	.	.	.	.	.	.	.	.	.	.	.	.
=16	=16	=16	=16	=16	=16	=16	=16	=16	=16	=16	=16	=16	=16	=16	=16	=16	=16	=16	=16	=16
!	!	!	!	!	!	!	!	!	!	!	!LO:TX:b:t=Verte Solo	!	!	!	!	!	!	!	!	!
8G\L	.	.	4g/	.	8b\L	.	00r	.	00r	.	1r	.	00r	.	4r	4r	4r	.	4r	.
8G\	.	.	.	.	(>32dd\LL	.	.	.	.	.	.	.	.	.	.	.	.	.	.	.
.	.	.	.	.	32ee\	.	.	.	.	.	.	.	.	.	.	.	.	.	.	.
.	.	.	.	.	32dd\	.	.	.	.	.	.	.	.	.	.	.	.	.	.	.
.	.	.	.	.	32cc\JJJ)	.	.	.	.	.	.	.	.	.	.	.	.	.	.	.
8G\	.	.	8r	.	16dd\LL	.	.	.	.	.	.	.	.	.	8r	8r	8r	.	8r	.
.	.	.	.	.	16ee\	.	.	.	.	.	.	.	.	.	.	.	.	.	.	.
8G\J	.	.	8b\	.	16ff\	.	.	.	.	.	.	.	.	.	8g/	8dd\	8b\	.	8gg\	.
.	.	.	.	.	16gg\JJ	.	.	.	.	.	.	.	.	.	.	.	.	.	.	.
!!mixed beam:problem
!LO:TX:t=P:problem=mixed beam	!	!	!	!	!	!	!	!	!	!	!	!	!	!	!	!	!	!	!	!
8c\L	.	6 x	8a/L	.	8ee\L	.	.	.	.	.	.	.	.	.	4cc\	4ee\	4cc\	.	4aa\	.
!	!	!	!	!	!LO:TUP:a:problem=klamra łukowa	!	!	!	!	!	!	!	!	!	!	!	!	!	!	!
8c\	.	.	16cc/L	.	24ee\L	.	.	.	.	.	.	.	.	.	.	.	.	.	.	.
.	.	.	.	.	24dd\	.	.	.	.	.	.	.	.	.	.	.	.	.	.	.
.	.	.	16a/JJ	.	.	.	.	.	.	.	.	.	.	.	.	.	.	.	.	.
.	.	.	.	.	24cc\JJ	.	.	.	.	.	.	.	.	.	.	.	.	.	.	.
8d\	.	7 x	8g/L	.	8b\L	.	.	.	.	.	.	.	.	.	8dd\L	8dd\L	8b\L	.	8gg\L	.
8D/J	.	x #	8f#X/J	.	8a\J	.	.	.	.	.	.	.	.	.	8dd\J	8dd\J	8a\J	.	8ff#X\J	.
!	!	!	!	!	!	!	!	!	!	!	!LO:PB:g=original	!	!	!	!	!	!LO:LB:g=original	!	!LO:LB:g=original	!
=17	=17	=17	=17	=17	=17	=17	=17-	=17	=17-	=17	=17	=17	=17-	=17	=17	=17	=17	=17	=17	=17
!	!LO:DY:a:rj:t=p&colon;	!	!	!	!	!	!	!	!	!	!LO:TX:a:t=Solo&colon;	!	!	!	!	!	!	!	!	!
8G\L	p	.	4g/	.	4b\	.	.	.	.	.	8r	.	.	.	4g/	4dd\	4b\	.	4gg\	.
8G\	.	.	.	.	.	.	.	.	.	.	8g\	&	.	.	.	.	.	.	.	.
!	!	!	!	!	!	!LO:DY:a:rj:t=p&colon;	!	!	!	!	!	!	!	!	!	!	!	!	!	!
8B\	.	6 x	4r	.	4r	p	.	.	.	.	16d\LL	u-	.	.	4r	4r	4r	.	4r	.
.	.	.	.	.	.	.	.	.	.	.	16g\JJ	.	.	.	.	.	.	.	.	.
8G\J	.	.	.	.	.	.	.	.	.	.	16b\LL	-nam	.	.	.	.	.	.	.	.
.	.	.	.	.	.	.	.	.	.	.	16dd\JJ	.	.	.	.	.	.	.	.	.
!	!	!	!LO:LB:g=original	!	!	!	!	!	!	!	!	!	!	!	!	!	!	!	!	!
8D/L	.	7 #	8r	.	8r	.	.	.	.	.	8cc\	San-	.	.	2r	2r	2r	.	2r	.
!	!	!	!	!LO:DY:a:rj:t=p&colon;	!	!	!	!	!	!	!	!	!	!	!	!	!	!	!	!
8GG/J	.	.	16g/LL	p	(>16b\LL	.	.	.	.	.	8b\	-ctam	.	.	.	.	.	.	.	.
.	.	.	16b/JJ	.	16dd\JJ)	.	.	.	.	.	.	.	.	.	.	.	.	.	.	.
4r	.	.	(<16b/LL	.	(>16dd\LL	.	.	.	.	.	4r	.	.	.	.	.	.	.	.	.
.	.	.	16a/)	.	16cc\)	.	.	.	.	.	.	.	.	.	.	.	.	.	.	.
.	.	.	(<16f#X/	.	(>16a\	.	.	.	.	.	.	.	.	.	.	.	.	.	.	.
.	.	.	16a/JJ)	.	16cc\JJ)	.	.	.	.	.	.	.	.	.	.	.	.	.	.	.
!LO:LB:g=original	!	!	!	!	!	!	!	!	!	!	!	!	!	!	!	!	!	!	!	!
=18	=18	=18	=18	=18	=18	=18	=18-	=18	=18-	=18	=18	=18	=18-	=18	=18	=18	=18	=18	=18	=18
8G\L	.	.	4g/	.	4b\	.	.	.	.	.	8r	.	.	.	00r	00r	00r	.	00r	.
*	*	*	*	*	*	*	*	*	*	*	*	*ij	*	*	*	*	*	*	*	*
8G\	.	.	.	.	.	.	.	.	.	.	8g\	San-	.	.	.	.	.	.	.	.
8B\	.	6 x	4r	.	4r	.	.	.	.	.	16d\LL	-ctam	.	.	.	.	.	.	.	.
*	*	*	*	*	*	*	*	*	*	*	*	*Xij	*	*	*	*	*	*	*	*
.	.	.	.	.	.	.	.	.	.	.	16g\JJ	.	.	.	.	.	.	.	.	.
8G\J	.	.	.	.	.	.	.	.	.	.	16b\LL	Ca-	.	.	.	.	.	.	.	.
.	.	.	.	.	.	.	.	.	.	.	16dd\JJ	.	.	.	.	.	.	.	.	.
8D/L	.	7 #	8r	.	8r	.	.	.	.	.	16cc\	-tho-	.	.	.	.	.	.	.	.
.	.	.	.	.	.	.	.	.	.	.	16cc\	-li-	.	.	.	.	.	.	.	.
8GG/J	.	.	(<16g/LL	.	(>16b\LL	.	.	.	.	.	8b\	-cam	.	.	.	.	.	.	.	.
.	.	.	16b/JJ)	.	16dd\JJ)	.	.	.	.	.	.	.	.	.	.	.	.	.	.	.
4r	.	.	(<16b/LL	.	(>16dd\LL	.	.	.	.	.	4r	.	.	.	.	.	.	.	.	.
.	.	.	16a/)	.	(>16cc\)	.	.	.	.	.	.	.	.	.	.	.	.	.	.	.
.	.	.	(<16f#X/	.	16a\	.	.	.	.	.	.	.	.	.	.	.	.	.	.	.
.	.	.	16a/JJ)	.	16cc\JJ)	.	.	.	.	.	.	.	.	.	.	.	.	.	.	.
=19	=19	=19	=19	=19	=19	=19	=19-	=19	=19-	=19	=19	=19	=19-	=19	=19-	=19-	=19-	=19	=19-	=19
8r	.	.	4g/	.	4b\	.	.	.	.	.	8r	.	.	.	.	.	.	.	.	.
!!mixed beam:problem
!LO:TX:t=P:problem=mixed beam	!	!	!	!	!	!	!	!	!	!	!	!	!	!	!	!	!	!	!	!
8GG/L	.	x 2:	.	.	.	.	.	.	.	.	8b\	&	.	.	.	.	.	.	.	.
8G\	.	.	4r	.	4r	.	.	.	.	.	8b\	a-	.	.	.	.	.	.	.	.
8F\J	.	.	.	.	.	.	.	.	.	.	16a\LL	-poſ-	.	.	.	.	.	.	.	.
.	.	.	.	.	.	.	.	.	.	.	16b\JJ	.	.	.	.	.	.	.	.	.
!	!	!	!	!	!	!	!	!	!	!	!LO:LB:g=original	!	!	!	!	!	!	!	!	!
8E\L	.	6: x	4r	.	4r	.	.	.	.	.	8cc\L	-to-	.	.	.	.	.	.	.	.
8E\	.	.	.	.	.	.	.	.	.	.	16ee\L	.	.	.	.	.	.	.	.	.
.	.	.	.	.	.	.	.	.	.	.	16dd\JJ	.	.	.	.	.	.	.	.	.
8E\	.	.	8r	.	8r	.	.	.	.	.	16cc\LL	.	.	.	.	.	.	.	.	.
.	.	.	.	.	.	.	.	.	.	.	16b\JJ	.	.	.	.	.	.	.	.	.
8E\J	.	.	8g/	.	8cc\	.	.	.	.	.	16a\LL	-li-	.	.	.	.	.	.	.	.
.	.	.	.	.	.	.	.	.	.	.	16g\JJ	.	.	.	.	.	.	.	.	.
!	!	!	!	!	!	!	!	!	!	!	!	!	!LO:LB:g=original	!	!	!	!	!	!	!
=20	=20	=20	=20	=20	=20	=20	=20-	=20	=20-	=20	=20	=20	=20	=20	=20-	=20-	=20-	=20	=20-	=20
!!mixed beam:problem
!LO:TX:t=P:problem=mixed beam	!	!	!	!	!	!	!	!	!	!	!	!	!	!	!	!	!	!	!	!
8F\L	.	6 x	8a/L	.	8cc\L	.	00r	.	00r	.	8a\	-cam	2r	.	.	.	.	.	.	.
8F\	.	.	16a/L	.	16ff\L	.	.	.	.	.	8dd\	Ec-	.	.	.	.	.	.	.	.
.	.	.	16f/JJ	.	16dd\JJ	.	.	.	.	.	.	.	.	.	.	.	.	.	.	.
8G\	.	4 x	8e/L	.	8cc\L	.	.	.	.	.	8cc\	-cle-	.	.	.	.	.	.	.	.
8GG/J	.	x 2	8d/J	.	8b\J	.	.	.	.	.	8b\	-ſi-	.	.	.	.	.	.	.	.
!	!	!	!	!	!	!	!	!	!	!	!	!	!LO:TX:a:t=Solo&colon;:rj	!	!	!	!	!	!	!
8C/L	.	.	4e/	.	4cc\	.	.	.	.	.	4cc\	-am	8r	.	.	.	.	.	.	.
8C/	.	.	.	.	.	.	.	.	.	.	.	.	8cc\	Con-	.	.	.	.	.	.
8E/	.	6 x	4r	.	4r	.	.	.	.	.	4r	.	16g\LL	-fi-	.	.	.	.	.	.
.	.	.	.	.	.	.	.	.	.	.	.	.	16cc\JJ	.	.	.	.	.	.	.
8C/J	.	.	.	.	.	.	.	.	.	.	.	.	16ee\	-te-	.	.	.	.	.	.
.	.	.	.	.	.	.	.	.	.	.	.	.	16gg\	-or	.	.	.	.	.	.
!	!	!	!LO:LB:g=original	!	!LO:LB:g=original	!	!	!	!	!	!	!	!	!	!	!	!	!	!	!
=21	=21	=21	=21	=21	=21	=21	=21-	=21	=21-	=21	=21	=21	=21	=21	=21-	=21-	=21-	=21	=21-	=21
8GG/L	.	7 x	8r	.	8r	.	.	.	.	.	00r	.	8ff\	u-	.	.	.	.	.	.
8C/J	.	.	(>16cc\LL	.	(>16ee\LL	.	.	.	.	.	.	.	8ee\	-num	.	.	.	.	.	.
.	.	.	16ee\JJ)	.	16gg\JJ)	.	.	.	.	.	.	.	.	.	.	.	.	.	.	.
4r	.	.	(>16ee\LL	.	(>16gg\LL	.	.	.	.	.	.	.	4r	.	.	.	.	.	.	.
.	.	.	(>16dd\)	.	(>16ff\)	.	.	.	.	.	.	.	.	.	.	.	.	.	.	.
.	.	.	16b\	.	16dd\	.	.	.	.	.	.	.	.	.	.	.	.	.	.	.
.	.	.	16dd\JJ)	.	16ff\JJ)	.	.	.	.	.	.	.	.	.	.	.	.	.	.	.
8C/L	.	.	4cc\	.	4ee\	.	.	.	.	.	.	.	8r	.	.	.	.	.	.	.
8C/	.	.	.	.	.	.	.	.	.	.	.	.	8cc\	u-	.	.	.	.	.	.
8E/	.	6 x	4r	.	4r	.	.	.	.	.	.	.	16g\LL	-num	.	.	.	.	.	.
.	.	.	.	.	.	.	.	.	.	.	.	.	16cc\JJ	.	.	.	.	.	.	.
8C/J	.	.	.	.	.	.	.	.	.	.	.	.	16ee\LL	bap-	.	.	.	.	.	.
.	.	.	.	.	.	.	.	.	.	.	.	.	16gg\JJ	.	.	.	.	.	.	.
!LO:LB:g=original	!	!	!	!	!	!	!	!	!	!	!	!	!	!	!	!	!	!	!	!
=22	=22	=22	=22	=22	=22	=22	=22-	=22	=22-	=22	=22-	=22	=22	=22	=22-	=22-	=22-	=22	=22-	=22
8GG/L	.	x 2	8r	.	8r	.	.	.	.	.	.	.	8ff\	-ti-	0r	0r	0r	.	0r	.
8C/J	.	.	(>16cc\LL	.	(>16ee\LL	.	.	.	.	.	.	.	8ee\	-ſma	.	.	.	.	.	.
.	.	.	16ee\JJ)	.	16gg\JJ)	.	.	.	.	.	.	.	.	.	.	.	.	.	.	.
4r	.	.	(>16ee\LL	.	(>16gg\LL	.	.	.	.	.	.	.	4r	.	.	.	.	.	.	.
.	.	.	16dd\)	.	(>16ff\)	.	.	.	.	.	.	.	.	.	.	.	.	.	.	.
.	.	.	(>16b\	.	16dd\	.	.	.	.	.	.	.	.	.	.	.	.	.	.	.
.	.	.	16dd\JJ)	.	16ff\JJ)	.	.	.	.	.	.	.	.	.	.	.	.	.	.	.
8r	.	.	4cc\	.	4ee\	.	.	.	.	.	.	.	8r	.	.	.	.	.	.	.
8C/L	.	.	.	.	.	.	.	.	.	.	.	.	16ee\	in	.	.	.	.	.	.
.	.	.	.	.	.	.	.	.	.	.	.	.	16gg\	re-	.	.	.	.	.	.
!	!	!	!	!	!	!	!	!	!	!	!	!	!LO:LB:g=original	!	!	!	!	!	!	!
8C/	.	.	4r	.	4r	.	.	.	.	.	.	.	16ff\LL	-miſ-	.	.	.	.	.	.
.	.	.	.	.	.	.	.	.	.	.	.	.	16ee\JJ	.	.	.	.	.	.	.
8E/J	.	6 x	.	.	.	.	.	.	.	.	.	.	16dd\LL	-si-	.	.	.	.	.	.
.	.	.	.	.	.	.	.	.	.	.	.	.	16cc\JJ	.	.	.	.	.	.	.
=23	=23	=23	=23	=23	=23	=23	=23-	=23	=23-	=23	=23-	=23	=23	=23	=23-	=23-	=23-	=23	=23-	=23
8G\L	.	x 2:	4r	.	4r	.	.	.	.	.	.	.	8.b\L	-o-	.	.	.	.	.	.
8F\	.	.	.	.	.	.	.	.	.	.	.	.	.	.	.	.	.	.	.	.
.	.	.	.	.	.	.	.	.	.	.	.	.	32a\LL	.	.	.	.	.	.	.
.	.	.	.	.	.	.	.	.	.	.	.	.	32b\JJJ	.	.	.	.	.	.	.
8E\	.	6 x	8r	.	8r	.	.	.	.	.	.	.	16cc\LL	.	.	.	.	.	.	.
.	.	.	.	.	.	.	.	.	.	.	.	.	16dd\JJ	.	.	.	.	.	.	.
8E\J	.	.	8g/	.	8cc\	.	.	.	.	.	.	.	16ee\LL	-nem	.	.	.	.	.	.
.	.	.	.	.	.	.	.	.	.	.	.	.	16cc\JJ	.	.	.	.	.	.	.
!!mixed beam:problem
!LO:TX:t=P:problem=mixed beam	!	!	!	!	!	!	!	!	!	!	!	!	!	!	!	!	!	!	!	!
8F\L	.	6 x	8a/L	.	8dd\L	.	.	.	.	.	.	.	16cc#X\LL	pec-	.	.	.	.	.	.
.	.	.	.	.	.	.	.	.	.	.	.	.	16dd\JJ	.	.	.	.	.	.	.
8F\	.	.	16a/L	.	16ff\L	.	.	.	.	.	.	.	16ff\LL	-ca-	.	.	.	.	.	.
.	.	.	16f/JJ	.	16dd\JJ	.	.	.	.	.	.	.	16dd\JJ	.	.	.	.	.	.	.
8G\	.	4 x	8e/L	.	8cc\L	.	.	.	.	.	.	.	8ccn\L	-to-	.	.	.	.	.	.
!LO:TX:b:t=Verte	!	!	!	!	!	!	!	!	!	!	!	!	!	!	!	!	!	!	!	!
8GG/J	.	x 2	8d/J	.	8b\J	.	.	.	.	.	.	.	8b\J	.	.	.	.	.	.	.
!LO:PB:g=original	!	!	!	!	!	!	!	!	!	!	!	!	!	!	!LO:PB:g=original	!LO:PB:g=original	!	!	!	!
=24	=24	=24	=24	=24	=24	=24	=24-	=24	=24-	=24	=24-	=24	=24	=24	=24	=24	=24	=24	=24	=24
!	!	!	!	!	!	!LO:DY:a:rj:t=f.	!	!	!	!	!	!	!	!	!	!	!	!	!	!
4C/	.	.	4e/	.	8cc\L	f	1r	.	1r	.	.	.	4cc\	-rum	4r	4r	4r	.	4r	.
.	.	.	.	.	(>32ee\LL	.	.	.	.	.	.	.	.	.	.	.	.	.	.	.
.	.	.	.	.	32dd\	.	.	.	.	.	.	.	.	.	.	.	.	.	.	.
.	.	.	.	.	32ee\	.	.	.	.	.	.	.	.	.	.	.	.	.	.	.
.	.	.	.	.	32ff\JJJ)	.	.	.	.	.	.	.	.	.	.	.	.	.	.	.
8r	.	.	8r	.	16gg\LL	.	.	.	.	.	.	.	4r	.	8r	8r	8r	.	8r	.
.	.	.	.	.	16ee\	.	.	.	.	.	.	.	.	.	.	.	.	.	.	.
8E\	.	6 x	8g/	.	16dd\	.	.	.	.	.	.	.	.	.	8cc\	8ee\	8ee\	.	8gg\	.
.	.	.	.	.	16cc\JJ	.	.	.	.	.	.	.	.	.	.	.	.	.	.	.
!	!	!	!LO:LB:g=original	!	!LO:LB:g=original	!	!	!	!	!	!	!	!	!	!	!	!	!	!	!
!LO:TX:t=P:problem=mixed beam	!	!	!	!	!	!	!	!	!	!	!	!	!	!	!	!	!	!	!LO:TX:a:t=P:problem=podwójna kropka nad nutą	!
8F\L	.	6: x	8a/L	.	8dd\L	.	.	.	.	.	.	.	2r	.	4dd\	4ff\	4dd\	.	4ff\	.
8F\	.	.	16a/L	.	16ff\L	.	.	.	.	.	.	.	.	.	.	.	.	.	.	.
.	.	.	16f/JJ	.	16dd\JJ	.	.	.	.	.	.	.	.	.	.	.	.	.	.	.
8G\	.	4 x	8e/L	.	8cc\L	.	.	.	.	.	.	.	.	.	8cc\L	8ee\L	8cc\L	.	8ee\L	.
8GG/J	.	x 2	8d/J	.	8b\J	.	.	.	.	.	.	.	.	.	8g\J	8dd\J	8b\J	.	8dd\J	.
=25	=25	=25	=25	=25	=25	=25	=25	=25	=25	=25	=25	=25	=25	=25	=25	=25	=25	=25	=25	=25
!LO:TX:a:rj:t=tutti	!	!	!	!LO:DY:a:t=for&colon;	!	!	!	!	!	!	!	!	!	!	!	!	!	!	!	!
8C\L	.	.	8e/L	f	8cc\L	.	8C/	&	8c\	&	8g\	&	8ee\	&	4e/	4cc\	4cc\	.	4ee\	.
8C\	.	.	8g/	.	16ee\L	.	8C/	ex-	8c\	ex-	8g\	ex-	8ee\	ex-	.	.	.	.	.	.
.	.	.	.	.	16gg\JJ	.	.	.	.	.	.	.	.	.	.	.	.	.	.	.
8E\	.	6 x	8g/	.	16ff\LL	.	8E\	-pec-	8c\	-pec-	8g\	-pe-	8cc\	-pec-	8e/L	8cc\L	4cc\	.	4ee\	.
.	.	.	.	.	16ee\	.	.	.	.	.	.	.	.	.	.	.	.	.	.	.
8E\J	.	.	8g/J	.	16dd\	.	8E\	-to	8c\	-to	8g\	-cto	8cc\	-to	8e/J	8cc\J	.	.	.	.
.	.	.	.	.	16cc\JJ	.	.	.	.	.	.	.	.	.	.	.	.	.	.	.
!	!	!	!	!	!	!	!	!	!	!	!	!	!LO:LB:g=original	!	!	!	!	!	!	!
8F\L	.	4 2	8g/L	.	16b\LL	.	8F\	re-	8d\	re-	8g\	re-	8b\	re-	8g\L	8dd\L	8b\L	.	8dd\L	.
.	.	.	.	.	16dd\	.	.	.	.	.	.	.	.	.	.	.	.	.	.	.
8E\	.	6 x	8g/	.	16cc\	.	8E\	-ſur-	8c\	-ſur-	8g\	-ſur-	8cc\	-ſur-	8cc\	8ee\	8cc\	.	8ee\	.
.	.	.	.	.	16ee\JJ	.	.	.	.	.	.	.	.	.	.	.	.	.	.	.
8BB\	.	6 5	8g/	.	16dd\LL	.	8BB/	-re-	8G/	-re-	8f\	-re-	8dd\	-re-	8dd\	8ff\	8dd\	.	8ff\	.
.	.	.	.	.	16ff\	.	.	.	.	.	.	.	.	.	.	.	.	.	.	.
8C\J	.	.	8g/J	.	16ee\	.	8C/	-cti-	8G/	-cti-	8e\	-cti-	8cc\	-cti-	8cc\J	8ee\J	8cc\J	.	8ee\J	.
.	.	.	.	.	16gg\JJ	.	.	.	.	.	.	.	.	.	.	.	.	.	.	.
!	!	!	!	!	!	!	!	!	!LO:LB:g=original	!	!LO:LB:g=original	!	!	!	!	!	!	!	!	!
=26	=26	=26	=26	=26	=26	=26	=26	=26	=26	=26	=26	=26	=26	=26	=26	=26	=26	=26	=26	=26
!!mixed beam:problem
!LO:TX:t=P:problem=mixed beam	!	!	!LO:TUP:a:problem=klamra łukowa	!	!LO:TUP:a:problem=klamra łukowa	!	!	!	!	!	!	!	!	!	!	!	!	!	!	!
8G\L	.	4 x	24cc\LL	.	24ee\LL	.	8G\	-o-	8G/	-o-	8e\	-o-	8cc\	-o-	8cc\L	8ee\L	8cc\L	.	8ee\L	.
.	.	.	24b\	.	24dd\	.	.	.	.	.	.	.	.	.	.	.	.	.	.	.
.	.	.	24cc\J	.	24ee\J	.	.	.	.	.	.	.	.	.	.	.	.	.	.	.
8GG/J	.	x 2	8b\J	.	8dd\J	.	8GG/	-nem	8G/	-nem	8d\	-nem	8b\	-nem	8g\J	8dd\J	8b\J	.	8dd\J	.
4r	.	.	4r	.	4r	.	4r	.	4r	.	4r	.	4r	.	4r	4r	4r	.	4r	.
8r	.	.	8r	.	8r	.	2C/	mor-	2G/	mor-	2e\	mor-	2cc\	mor-	2r	2r	2r	.	2r	.
!	!LO:DY:a:rj:t=p&colon;	!	!	!LO:DY:a:rj:t=p&colon;	!	!LO:DY:a:rj:t=p&colon;	!	!	!	!	!	!	!	!	!	!	!	!	!	!
8C/L	p	.	8cc\L	p	8ee\L	p	.	.	.	.	.	.	.	.	.	.	.	.	.	.
8C/	.	.	8cc\	.	8ee\	.	.	.	.	.	.	.	.	.	.	.	.	.	.	.
8C/J	.	.	8cc\J	.	8ee\J	.	.	.	.	.	.	.	.	.	.	.	.	.	.	.
!	!	!	!	!	!	!	!LO:LB:g=original	!	!	!	!	!	!	!	!	!	!	!	!	!
=27	=27	=27	=27	=27	=27	=27	=27	=27	=27	=27	=27	=27	=27	=27	=27	=27	=27	=27	=27	=27
8r	.	.	8r	.	8r	.	2F\	-tu-	2A/	-tu-	2d\	-tu-	2cc\	-tu-	1r	1r	1r	.	1r	.
8F\L	.	6: 5:	8cc\L	.	8dd\L	.	.	.	.	.	.	.	.	.	.	.	.	.	.	.
8F\	.	.	8cc\	.	8dd\	.	.	.	.	.	.	.	.	.	.	.	.	.	.	.
8F\J	.	.	8cc\J	.	8dd\J	.	.	.	.	.	.	.	.	.	.	.	.	.	.	.
!LO:LB:g=original	!	!	!	!	!LO:LB:g=original	!	!	!	!	!	!	!	!	!	!	!	!	!	!	!
8r	.	.	8r	.	8r	.	2G\	-o-	2G/	-o-	2d\	-o-	2b\	-o-	.	.	.	.	.	.
8G\L	.	.	8b\L	.	8dd\L	.	.	.	.	.	.	.	.	.	.	.	.	.	.	.
8G\	.	.	8b\	.	8dd\	.	.	.	.	.	.	.	.	.	.	.	.	.	.	.
8G\J	.	.	8b\J	.	8dd\J	.	.	.	.	.	.	.	.	.	.	.	.	.	.	.
!	!	!	!LO:LB:g=original	!	!	!	!	!	!	!	!	!	!	!	!	!	!	!	!	!
=28	=28	=28	=28	=28	=28	=28	=28	=28	=28	=28	=28	=28	=28	=28	=28	=28	=28	=28	=28	=28
!	!LO:DY:a:rj:t=for	!	!	!LO:DY:a	!	!LO:DY:a:rj	!	!	!	!	!	!	!	!	!	!	!	!	!	!
8C\L	f	.	8e/L	fz	(>8.cc\L	fz	8C/	-rum	8G/	-rum	8e\	-rum	8cc\	-rum	4cc\	4cc\	4cc\	.	4ee\	.
8C\	.	.	8g/	.	.	.	8C/	&	8G/	&	8e\	&	8cc\	&	.	.	.	.	.	.
.	.	.	.	.	16ee\Jk)	.	.	.	.	.	.	.	.	.	.	.	.	.	.	.
8E\	.	6 x	8g/	.	(>16dd\LL	.	4E\	vi-	4G/	Vi-	4e\	vi-	4cc\	vi-	4cc\	4ee\	4cc\	.	4ee\	.
.	.	.	.	.	16cc\)	.	.	.	.	.	.	.	.	.	.	.	.	.	.	.
8E\J	.	.	8g/J	.	(>16b\	.	.	.	.	.	.	.	.	.	.	.	.	.	.	.
.	.	.	.	.	16cc\JJ)	.	.	.	.	.	.	.	.	.	.	.	.	.	.	.
8F\L	.	6 x	8a/L	.	(>16cc#X\LL	.	8F\	-tam	8A/	-tam	8f\	-tam	8dd\	-tam	4dd\	4ff\	4dd\	.	4ff\	.
.	.	.	.	.	16dd\)	.	.	.	.	.	.	.	.	.	.	.	.	.	.	.
8F\	.	.	8a/	.	(>16ff\	.	8F\	Ven-	8A/	Ven-	8f\	Ven-	8dd\	Ven-	.	.	.	.	.	.
.	.	.	.	.	16dd\JJ)	.	.	.	.	.	.	.	.	.	.	.	.	.	.	.
8G\	.	.	8d/	.	16b/LL	.	8G\	-tu-	4G/	-tu-	4d\	-tu-	4b\	-tu-	4g/	4dd\	4b\	.	4dd\	.
.	.	.	.	.	(<16g/	.	.	.	.	.	.	.	.	.	.	.	.	.	.	.
8G\J	.	.	8d/J	.	(<16a/)	.	8G\	-ri	.	.	.	.	.	.	.	.	.	.	.	.
.	.	.	.	.	16b/JJ)	.	.	.	.	.	.	.	.	.	.	.	.	.	.	.
!	!	!	!	!	!	!	!	!	!	!	!	!	!LO:LB:g=original	!	!	!	!LO:LB:g=original	!	!LO:LB:g=original	!
=29	=29	=29	=29	=29	=29	=29	=29	=29	=29	=29	=29	=29	=29	=29	=29	=29	=29	=29	=29	=29
*	*	*	*	*	*	*	*	*ij	*	*	*	*	*	*	*	*	*	*	*	*
8c\L	.	.	8e/L	.	(>16cc\LL	.	4C/	ven-	8G/	-ri	8e\	-ri	8cc\	-ri	4e/	4cc\	4cc\	.	4ee\	.
*	*	*	*	*	*	*	*	*	*	*ij	*	*ij	*	*	*	*	*	*	*	*
.	.	.	.	.	16b\)	.	.	.	.	.	.	.	.	.	.	.	.	.	.	.
8c\	.	.	8g/	.	(>16cc\	.	.	.	8G/	Ven-	8e\	Ven-	8cc\	Ven-	.	.	.	.	.	.
.	.	.	.	.	16ee\JJ)	.	.	.	.	.	.	.	.	.	.	.	.	.	.	.
8E\	.	6 x	8g/	.	(>16dd\LL	.	8E\	-tu-	8G/	-tu-	8e\	-tu-	8cc\	-tu-	4cc\	4ee\	4cc\	.	4ee\	.
.	.	.	.	.	(>16cc\)	.	.	.	.	.	.	.	.	.	.	.	.	.	.	.
8E\J	.	.	8g/J	.	16b\	.	8E\	-ri	8G/	-ri	8e\	-ri	8cc\	-ri	.	.	.	.	.	.
*	*	*	*	*	*	*	*	*Xij	*	*Xij	*	*Xij	*	*	*	*	*	*	*	*
.	.	.	.	.	16cc\JJ	.	.	.	.	.	.	.	.	.	.	.	.	.	.	.
!	!	!	!	!	!	!	!	!	!	!	!LO:LB:g=original	!	!	!	!	!	!	!	!	!
8F\L	.	6 x	8a/L	.	16ee\LL)	.	8F\	Sae-	8A/	Sae-	8f\	Sae-	8dd\	Sae-	4dd\	4ff\	4dd\	.	4ff\	.
.	.	.	.	.	16dd\	.	.	.	.	.	.	.	.	.	.	.	.	.	.	.
8F\	.	.	8a/	.	16cc\	.	16F\	-cu-	16A/	-cu-	16f\	-cu-	16dd\	-cu-	.	.	.	.	.	.
.	.	.	.	.	16dd\JJ	.	16F\	-li	16A/	-li	16f\	-li	16dd\	-li	.	.	.	.	.	.
8F#X\	.	x 5	8a/	.	16ff\LL	.	4F#X\	a-	4A/	a-	4e\	a-	4cc\	a-	4cc\	4ee\	4cc\	.	4ee\	.
.	.	.	.	.	16ee\	.	.	.	.	.	.	.	.	.	.	.	.	.	.	.
8F#\J	.	.	8a/J	.	16dd\	.	.	.	.	.	.	.	.	.	.	.	.	.	.	.
.	.	.	.	.	16cc\JJ	.	.	.	.	.	.	.	.	.	.	.	.	.	.	.
!	!	!	!	!	!	!	!	!	!LO:LB:g=original	!	!	!	!	!	!LO:LB:g=original	!LO:LB:g=original	!	!	!	!
=30	=30	=30	=30	=30	=30	=30	=30	=30	=30	=30	=30	=30	=30	=30	=30	=30	=30	=30	=30	=30
!!mixed beam:problem
!	!	!	!LO:TX:t=P:problem=mixed beam	!	!	!	!	!	!	!	!	!	!	!	!	!	!	!	!	!
8G\L	.	.	8d/L	.	8b\L	.	8G\	-men	8G/	-men	8d\	-men	8b\	-men	4g/	4dd\	8b\L	.	8dd\L	.
8G\	.	x 2	8b\	.	16gg\L	.	8G\	&	8d\	&	8b\	&	8gg\	&	.	.	8b\	.	8gg\	.
.	.	.	.	.	16aa\JJ	.	.	.	.	.	.	.	.	.	.	.	.	.	.	.
!	!	!	!	!	!LO:LB:g=original	!	!LO:LB:g=original	!	!	!	!	!	!	!	!	!	!	!	!	!
!	!	!	!	!	!	!	!	!	!LO:TX:t=P:problem=mixed beam	!	!	!	!	!	!	!	!	!	!	!
8A\	.	6 2	8cc\	.	16gg\LL	.	8A\L	vi-	8d\L	vi-	8cc\L	vi-	8ff#X\L	vi-	8r	8r	8cc\	.	8ff#X\	.
.	.	.	.	.	16ff#X\	.	.	.	.	.	.	.	.	.	.	.	.	.	.	.
8B\J	.	n5r 2	8dd\J	.	16dd\	.	8B\J	.	8G/J	.	8dd\J	.	8ffn\J	.	8g/	8dd\	8dd\J	.	8ffn\J	.
.	.	.	.	.	16ffn\JJ	.	.	.	.	.	.	.	.	.	.	.	.	.	.	.
8c\L	.	.	8cc/L	.	16ff\LL	.	8c\	-tam	8G/	-tam	8cc\	-tam	8ee\	-tam	4cc\	4ee\	4cc\	.	4ee\	.
.	.	.	.	.	16ee\	.	.	.	.	.	.	.	.	.	.	.	.	.	.	.
8c\	.	.	8g/	.	16aa\	.	8c\	Ven-	8G/	Ven-	8g\	Ven-	8ee\	Ven-	.	.	.	.	.	.
.	.	.	.	.	16gg\JJ	.	.	.	.	.	.	.	.	.	.	.	.	.	.	.
8B\	.	6: x	8g/	.	16gg\LL	.	8B\	-tu-	8G/	-tu-	8g\	-tu-	8dd\	-tu-	4g/	4dd\	4dd\	.	4ff\	.
.	.	.	.	.	16ff\	.	.	.	.	.	.	.	.	.	.	.	.	.	.	.
8B\J	.	.	8g/J	.	16ee\	.	8B\	-ri	8G/	-ri	8g\	-ri	8dd\	-ri	.	.	.	.	.	.
.	.	.	.	.	16dd\JJ	.	.	.	.	.	.	.	.	.	.	.	.	.	.	.
!LO:LB:g=original	!	!	!	!	!	!	!	!	!	!	!	!	!LO:LB:g=original	!	!	!	!	!	!	!
=31	=31	=31	=31	=31	=31	=31	=31	=31	=31	=31	=31	=31	=31	=31	=31	=31	=31	=31	=31	=31
8A\L	.	.	8e/L	.	16dd\LL	.	4A\	Sae-	4A/	Sae-	4d\	Sae-	4cc\	Sae-	4cc\	4ee\	4cc\	.	4ee\	.
.	.	.	.	.	16cc\	.	.	.	.	.	.	.	.	.	.	.	.	.	.	.
8A\	.	.	8e/	.	16b\	.	.	.	.	.	.	.	.	.	.	.	.	.	.	.
.	.	.	.	.	16cc\JJ	.	.	.	.	.	.	.	.	.	.	.	.	.	.	.
8E\	.	6 x	8g/	.	(>8.cc\L	.	8E\	-cu-	8G/	-cu-	8g\	-cu-	8cc\	-cu-	4cc\	4ee\	4cc\	.	4gg\	.
8E\J	.	x -5r	8g/J	.	.	.	8E\	-li	8G/	-li	8g\	-li	8cc\	-li	.	.	.	.	.	.
.	.	.	.	.	16b-X\Jk)	.	.	.	.	.	.	.	.	.	.	.	.	.	.	.
!	!	!	!LO:LB:g=original	!	!	!	!	!	!	!	!	!	!	!	!	!	!	!	!	!
!!mixed beam:problem
!LO:TX:t=P:problem=mixed beam	!	!	!	!	!	!	!	!	!	!	!	!	!	!	!	!	!	!	!	!
8F\L	.	6 2	8a/L	.	16a\LL	.	4F\	a-	4A/	a-	4f\	a-	4dd\	a-	4dd\	4ff\	4dd\	.	4ff\	.
.	.	.	.	.	16dd\	.	.	.	.	.	.	.	.	.	.	.	.	.	.	.
8F\	.	.	16a/L	.	16ff\	.	.	.	.	.	.	.	.	.	.	.	.	.	.	.
.	.	.	16f/JJ	.	16dd\JJ	.	.	.	.	.	.	.	.	.	.	.	.	.	.	.
8G\	.	4 x	16f/LL	.	16dd\LL	.	4G\	.	4G/	.	8e\L	.	8cc\L	.	8cc\L	8ee\L	8cc\L	.	8ee\L	.
.	.	.	16e/	.	16cc\	.	.	.	.	.	.	.	.	.	.	.	.	.	.	.
8GG/J	.	x n2r	16e/	.	16cc\	.	.	.	.	.	8d\J	.	8b\J	.	8g\J	8dd\J	8b\J	.	8dd\J	.
.	.	.	16d/JJ	.	16bn\JJ	.	.	.	.	.	.	.	.	.	.	.	.	.	.	.
!	!	!	!	!	!	!	!	!	!	!	!LO:LB:g=original	!	!	!	!	!	!	!	!	!
=32	=32	=32	=32	=32	=32	=32	=32	=32	=32	=32	=32	=32	=32	=32	=32	=32	=32	=32	=32	=32
!!mixed beam:problem
!	!	!	!LO:TX:t=P:problem=mixed beam	!	!	!	!	!	!	!	!	!	!	!	!	!	!	!	!	!
8C\L	.	.	16e/LL	.	16cc\LL	.	8c\	-men	8G/	-men	4e\	-men	8cc\	-men	8e/	8cc\L	8cc\	.	4ee\	.
.	.	.	16cc\	.	16ee\	.	.	.	.	.	.	.	.	.	.	.	.	.	.	.
*	*	*	*	*	*	*	*	*ij	*	*ij	*	*	*	*ij	*	*	*	*	*	*
8G\	.	.	16cc\	.	16ee\	.	8A\	a-	(<4A/	a-	.	.	(>4cc\	a-	4cc\	8ee\J	4cc\	.	.	.
.	.	.	16cc\JJ	.	16ee\JJ	.	.	.	.	.	.	.	.	.	.	.	.	.	.	.
*	*	*	*	*	*tremolo	*	*	*	*	*	*	*	*	*	*	*	*	*	*	*
8F\	.	6 5	16cc\LL	.	16dd\LL	.	8F\L	.	.	.	4d\	a-	.	.	.	4dd\	.	.	4dd\	.
.	.	.	16cc\	.	16dd\	.	.	.	.	.	.	.	.	.	.	.	.	.	.	.
8G\J	.	.	16b\	.	16dd\	.	8G\J	.	8G/)	.	.	.	8b\)	.	8g/	.	8b\	.	.	.
.	.	.	16b\JJ	.	16dd\JJ	.	.	.	.	.	.	.	.	.	.	.	.	.	.	.
*	*	*	*	*	*Xtremolo	*	*	*	*	*	*	*	*	*	*	*	*	*	*	*
4C/	.	.	4cc\	.	4ee\	.	4C/	-men	4G/	-men	4e\	-men	4cc\	-men	4e/	4cc\	4cc\	.	4ee\	.
*	*	*	*	*	*	*	*	*Xij	*	*Xij	*	*	*	*Xij	*	*	*	*	*	*
4r	.	.	4r	.	4r	.	4r	.	4r	.	4r	.	4r	.	4r	4r	4r	.	4r	.
==	==	==	==	==	==	==	==	==	==	==	==	==	==	==	==	==	==	==	==	==
*-	*-	*-	*-	*-	*-	*-	*-	*-	*-	*-	*-	*-	*-	*-	*-	*-	*-	*-	*-	*-
!!!system-decoration: [(g1)][(g2)][(g3)][(g4)]g5
!!!RDF**kern: > = above
!!!RDF**kern: < = below
!!!ENC: Berenika Jozajtis
!!!END: 2020-07-13
!!!EED: Jędrzej Mróz
!!!EEV: 2021-12-01
!!!YEC: Copyright 2022 Narodowy Instytut Fryderyka Chopina (https://polishscores.org)
!!!YEM: License CC-BY-4.0 (https://creativecommons.org/licenses/by/4.0)
